icon-svg/phoenix-pendant.svg

<svg xmlns="http://www.w3.org/2000/svg" fill="#44739e" viewBox="0 0 24 24"><path d="M22.8 16.8h-.3c-1.7-1.1-5.2-2-10-2v-4.6c1.8-.2 3.3-1.6 3.3-3.3 0-1-.5-1.9-1.3-2.5 1.5-.2 2.8-.8 2.8-1.7 0-1.5-3.3-1.9-5.2-1.9s-5.2.4-5.2 1.9c0 1.4 2.8 1.9 4.7 1.9v4.7c-1.8.2-3.2 1.6-3.2 3.3 0 .9.5 1.8 1.2 2.4-3.7.2-6.7.9-8.1 2h-.3c-.5 0-.9.4-.9.9 0 .4.3.7.7.8C2.6 20.1 7 23 12 23c4.5 0 9.3-3.1 10.9-4.3.4-.1.7-.4.7-.8 0-.8-.4-1.1-.8-1.1M12.5 9.1V4.6c1.3.2 2.3 1.1 2.3 2.3s-1 2-2.3 2.2m-3.3 3.3c0-1.1 1-2 2.2-2.3v4.5c-1.2-.1-2.2-1.1-2.2-2.2m2.7 3.3s.1 0 0 0h.1c3.4 0 6.1.5 7.9 1.1H3.6c1.8-.6 4.6-1.1 8.3-1.1m.1 6.1c-3.9 0-7.4-1.9-9.3-3.3h18.5c-2.1 1.4-5.8 3.3-9.2 3.3"/></svg>

<svg viewBox="0 0 24 24" height="24px" width="24px" fill="#44739e" xmlns="http://www.w3.org/2000/svg"><title>hue:phoenix-pendant</title><path d="M22.8,16.8h-0.3c-1.7-1.1-5.2-2-10-2v-4.6c1.8-0.2,3.3-1.6,3.3-3.3c0-1-0.5-1.9-1.3-2.5c1.5-0.2,2.8-0.8,2.8-1.7 c0-1.5-3.3-1.9-5.2-1.9c-1.9,0-5.2,0.4-5.2,1.9c0,1.4,2.8,1.9,4.7,1.9v4.7c-1.8,0.2-3.2,1.6-3.2,3.3c0,0.9,0.5,1.8,1.2,2.4 c-3.7,0.2-6.7,0.9-8.1,2H1.2c-0.5,0-0.9,0.4-0.9,0.9c0,0.4,0.3,0.7,0.7,0.8c1.6,1.4,6,4.3,11,4.3c4.5,0,9.3-3.1,10.9-4.3 c0.4-0.1,0.7-0.4,0.7-0.8C23.6,17.1,23.2,16.8,22.8,16.8z M12.5,9.1V4.6c1.3,0.2,2.3,1.1,2.3,2.3S13.8,8.9,12.5,9.1z M9.2,12.4 c0-1.1,1-2,2.2-2.3v4.5C10.2,14.5,9.2,13.5,9.2,12.4z M11.9,15.7C11.9,15.7,12,15.7,11.9,15.7c0.1,0,0.1,0,0.1,0 c3.4,0,6.1,0.5,7.9,1.1H3.6C5.4,16.2,8.2,15.7,11.9,15.7z M12,21.8c-3.9,0-7.4-1.9-9.3-3.3h18.5C19.1,19.9,15.4,21.8,12,21.8z"/></svg>
